static/img/kroki/d8b08b8a3737256e780ade4291331e5f.svg

<?xml version="1.0" encoding="us-ascii" standalone="no"?><svg xmlns="http://www.w3.org/2000/svg" xmlns:xlink="http://www.w3.org/1999/xlink" contentStyleType="text/css" height="154px" preserveAspectRatio="none" style="width:868px;height:154px;" version="1.1" viewBox="0 0 868 154" width="868px" zoomAndPan="magnify"><defs/><g><!--class microsoft_graph_device--><g id="elem_microsoft_graph_device"><rect codeLine="23" fill="#3D176E" height="39.7891" id="microsoft_graph_device" rx="2.5" ry="2.5" style="stroke:#000D19;stroke-width:0.5;" width="239" x="7" y="7"/><ellipse cx="22" cy="26.8945" fill="#ADD1B2" rx="11" ry="11" style="stroke:#181818;stroke-width:1.0;"/><path d="M24.9688,32.5352 Q24.3906,32.832 23.75,32.9727 Q23.1094,33.1289 22.4063,33.1289 Q19.9063,33.1289 18.5781,31.4883 Q17.2656,29.832 17.2656,26.707 Q17.2656,23.582 18.5781,21.9258 Q19.9063,20.2695 22.4063,20.2695 Q23.1094,20.2695 23.75,20.4258 Q24.4063,20.582 24.9688,20.8789 L24.9688,23.5977 Q24.3438,23.0195 23.75,22.7539 Q23.1563,22.4727 22.5313,22.4727 Q21.1875,22.4727 20.5,23.5508 Q19.8125,24.6133 19.8125,26.707 Q19.8125,28.8008 20.5,29.8789 Q21.1875,30.9414 22.5313,30.9414 Q23.1563,30.9414 23.75,30.6758 Q24.3438,30.3945 24.9688,29.8164 L24.9688,32.5352 Z " fill="#000000"/><text fill="#D9B8FF" font-family="Helvetica" font-size="17" lengthAdjust="spacing" textLength="197" x="41" y="32.7798">microsoft_graph_device</text></g><!--class microsoft_graph_role--><g id="elem_microsoft_graph_role"><rect codeLine="26" fill="#3D176E" height="39.7891" id="microsoft_graph_role" rx="2.5" ry="2.5" style="stroke:#000D19;stroke-width:0.5;" width="218" x="333.5" y="106.79"/><ellipse cx="348.5" cy="126.6845" fill="#ADD1B2" rx="11" ry="11" style="stroke:#181818;stroke-width:1.0;"/><path d="M351.4688,132.3252 Q350.8906,132.622 350.25,132.7627 Q349.6094,132.9189 348.9063,132.9189 Q346.4063,132.9189 345.0781,131.2783 Q343.7656,129.622 343.7656,126.497 Q343.7656,123.372 345.0781,121.7158 Q346.4063,120.0595 348.9063,120.0595 Q349.6094,120.0595 350.25,120.2158 Q350.9063,120.372 351.4688,120.6689 L351.4688,123.3877 Q350.8438,122.8095 350.25,122.5439 Q349.6563,122.2627 349.0313,122.2627 Q347.6875,122.2627 347,123.3408 Q346.3125,124.4033 346.3125,126.497 Q346.3125,128.5908 347,129.6689 Q347.6875,130.7314 349.0313,130.7314 Q349.6563,130.7314 350.25,130.4658 Q350.8438,130.1845 351.4688,129.6064 L351.4688,132.3252 Z " fill="#000000"/><text fill="#D9B8FF" font-family="Helvetica" font-size="17" lengthAdjust="spacing" textLength="176" x="367.5" y="132.5698">microsoft_graph_role</text></g><!--class microsoft_graph_service_principal--><g id="elem_microsoft_graph_service_principal"><rect codeLine="29" fill="#3D176E" height="39.7891" id="microsoft_graph_service_principal" rx="2.5" ry="2.5" style="stroke:#000D19;stroke-width:0.5;" width="324" x="280.5" y="7"/><ellipse cx="295.5" cy="26.8945" fill="#ADD1B2" rx="11" ry="11" style="stroke:#181818;stroke-width:1.0;"/><path d="M298.4688,32.5352 Q297.8906,32.832 297.25,32.9727 Q296.6094,33.1289 295.9063,33.1289 Q293.4063,33.1289 292.0781,31.4883 Q290.7656,29.832 290.7656,26.707 Q290.7656,23.582 292.0781,21.9258 Q293.4063,20.2695 295.9063,20.2695 Q296.6094,20.2695 297.25,20.4258 Q297.9063,20.582 298.4688,20.8789 L298.4688,23.5977 Q297.8438,23.0195 297.25,22.7539 Q296.6563,22.4727 296.0313,22.4727 Q294.6875,22.4727 294,23.5508 Q293.3125,24.6133 293.3125,26.707 Q293.3125,28.8008 294,29.8789 Q294.6875,30.9414 296.0313,30.9414 Q296.6563,30.9414 297.25,30.6758 Q297.8438,30.3945 298.4688,29.8164 L298.4688,32.5352 Z " fill="#000000"/><text fill="#D9B8FF" font-family="Helvetica" font-size="17" lengthAdjust="spacing" textLength="282" x="314.5" y="32.7798">microsoft_graph_service_principal</text></g><!--class microsoft_graph_user--><g id="elem_microsoft_graph_user"><rect codeLine="32" fill="#3D176E" height="39.7891" id="microsoft_graph_user" rx="2.5" ry="2.5" style="stroke:#000D19;stroke-width:0.5;" width="222" x="639.5" y="7"/><ellipse cx="654.5" cy="26.8945" fill="#ADD1B2" rx="11" ry="11" style="stroke:#181818;stroke-width:1.0;"/><path d="M657.4688,32.5352 Q656.8906,32.832 656.25,32.9727 Q655.6094,33.1289 654.9063,33.1289 Q652.4063,33.1289 651.0781,31.4883 Q649.7656,29.832 649.7656,26.707 Q649.7656,23.582 651.0781,21.9258 Q652.4063,20.2695 654.9063,20.2695 Q655.6094,20.2695 656.25,20.4258 Q656.9063,20.582 657.4688,20.8789 L657.4688,23.5977 Q656.8438,23.0195 656.25,22.7539 Q655.6563,22.4727 655.0313,22.4727 Q653.6875,22.4727 653,23.5508 Q652.3125,24.6133 652.3125,26.707 Q652.3125,28.8008 653,29.8789 Q653.6875,30.9414 655.0313,30.9414 Q655.6563,30.9414 656.25,30.6758 Q656.8438,30.3945 657.4688,29.8164 L657.4688,32.5352 Z " fill="#000000"/><text fill="#D9B8FF" font-family="Helvetica" font-size="17" lengthAdjust="spacing" textLength="180" x="673.5" y="32.7798">microsoft_graph_user</text></g><!--link microsoft_graph_device to microsoft_graph_role--><g id="link_microsoft_graph_device_microsoft_graph_role"><path codeLine="35" d="M188.93,47.22 C244.24,64.33 318.8482,87.4161 374.1982,104.5461 " fill="none" id="microsoft_graph_device-to-microsoft_graph_role" style="stroke:#1A83AF;stroke-width:2.0;"/><polygon fill="#1A83AF" points="379.93,106.32,372.5149,99.838,375.1535,104.8418,370.1497,107.4803,379.93,106.32" style="stroke:#1A83AF;stroke-width:2.0;"/></g><!--link microsoft_graph_role to microsoft_graph_role--><g id="link_microsoft_graph_role_microsoft_graph_role"><path codeLine="36" d="M551.76,108.94 C572.14,111.12 586.5,117.04 586.5,126.69 C586.5,136.33 578.1057,141.6089 557.7257,143.7989 " fill="none" id="microsoft_graph_role-to-microsoft_graph_role" style="stroke:#1A83AF;stroke-width:2.0;"/><polygon fill="#1A83AF" points="551.76,144.44,561.1359,147.4555,556.7314,143.9058,560.2811,139.5013,551.76,144.44" style="stroke:#1A83AF;stroke-width:2.0;"/></g><!--link microsoft_graph_service_principal to microsoft_graph_role--><g id="link_microsoft_graph_service_principal_microsoft_graph_role"><path codeLine="37" d="M442.5,47.22 C442.5,64.36 442.5,83.27 442.5,100.41 " fill="none" id="microsoft_graph_service_principal-to-microsoft_graph_role" style="stroke:#1A83AF;stroke-width:2.0;"/><polygon fill="#1A83AF" points="442.5,106.41,446.5,97.41,442.5,101.41,438.5,97.41,442.5,106.41" style="stroke:#1A83AF;stroke-width:2.0;"/></g><!--link microsoft_graph_user to microsoft_graph_role--><g id="link_microsoft_graph_user_microsoft_graph_role"><path codeLine="38" d="M689.65,47.22 C635.74,64.33 563.1587,87.3742 509.2087,104.5042 " fill="none" id="microsoft_graph_user-to-microsoft_graph_role" style="stroke:#1A83AF;stroke-width:2.0;"/><polygon fill="#1A83AF" points="503.49,106.32,513.2785,107.4088,508.2555,104.8069,510.8575,99.7839,503.49,106.32" style="stroke:#1A83AF;stroke-width:2.0;"/></g><!--SRC=[bP1DIyD048Rl-HKBEHSQWwQz2B5Gz5B4UXCfqztPPcco6sQtBLNyxpQjoffFUfttcPbd9bC26HQbEx82YpMI3UnMwH882fOIcSFCv8POA2N8EAc7SwFT8B200jaZvdjqYaETUCqKtsgqbjruqGFmxORCJelBU4UWxIb2xJngbeErgNEarZk7deoOhYTIridwq30MKNA73SoGGFf1nkEnYAPrP71Lxzr_n59z88lyfosCmuPcOyMPwhMi24-oSUXltkdu348elM6tNktbuaGQwLzzcO4mXugMa5j_ZNL8QDonn5dZAfnEX4nQuQSkEE3LwrYXE1bhf5jj2Cfi9N2lEBBF8FZg8CZalRb5gaQiIbAQgnBoFdXteYzvXyZeBOpIIPpEtqVthIf1gz_rRKtjwsUShnbk-mO0]--></g></svg>

<svg xmlns="http://www.w3.org/2000/svg" width="868" height="154" viewBox="0 0 868 154"><rect width="239" height="39.789" x="7" y="7" fill="#3D176E" rx="2.5" ry="2.5" style="stroke:#000d19;stroke-width:.5"/><circle cx="22" cy="26.895" r="11" fill="#ADD1B2" style="stroke:#181818;stroke-width:1"/><path d="M24.969 32.535q-.578.297-1.219.438-.64.156-1.344.156-2.5 0-3.828-1.64-1.312-1.657-1.312-4.782t1.312-4.781q1.328-1.656 3.828-1.656.703 0 1.344.156.656.156 1.219.453v2.719q-.625-.578-1.219-.844-.594-.281-1.219-.281-1.343 0-2.031 1.078-.687 1.062-.687 3.156t.687 3.172q.688 1.062 2.031 1.062.625 0 1.219-.265.594-.281 1.219-.86z"/><text x="41" y="32.78" fill="#D9B8FF" font-family="Helvetica" font-size="17" textLength="197">microsoft_graph_device</text><rect width="218" height="39.789" x="333.5" y="106.79" fill="#3D176E" rx="2.5" ry="2.5" style="stroke:#000d19;stroke-width:.5"/><circle cx="348.5" cy="126.684" r="11" fill="#ADD1B2" style="stroke:#181818;stroke-width:1"/><path d="M351.469 132.325q-.578.297-1.219.438-.64.156-1.344.156-2.5 0-3.828-1.64-1.312-1.657-1.312-4.782t1.312-4.781q1.328-1.656 3.828-1.656.703 0 1.344.156.656.156 1.219.453v2.719q-.625-.579-1.219-.844-.594-.281-1.219-.281-1.344 0-2.031 1.078-.687 1.062-.687 3.156t.687 3.172q.688 1.062 2.031 1.062.625 0 1.219-.265.594-.281 1.219-.86z"/><text x="367.5" y="132.57" fill="#D9B8FF" font-family="Helvetica" font-size="17" textLength="176">microsoft_graph_role</text><rect width="324" height="39.789" x="280.5" y="7" fill="#3D176E" rx="2.5" ry="2.5" style="stroke:#000d19;stroke-width:.5"/><circle cx="295.5" cy="26.895" r="11" fill="#ADD1B2" style="stroke:#181818;stroke-width:1"/><path d="M298.469 32.535q-.578.297-1.219.438-.64.156-1.344.156-2.5 0-3.828-1.64-1.312-1.657-1.312-4.782t1.312-4.781q1.328-1.656 3.828-1.656.703 0 1.344.156.656.156 1.219.453v2.719q-.625-.578-1.219-.844-.594-.281-1.219-.281-1.344 0-2.031 1.078-.687 1.062-.687 3.156t.687 3.172q.688 1.062 2.031 1.062.625 0 1.219-.265.594-.281 1.219-.86z"/><text x="314.5" y="32.78" fill="#D9B8FF" font-family="Helvetica" font-size="17" textLength="282">microsoft_graph_service_principal</text><rect width="222" height="39.789" x="639.5" y="7" fill="#3D176E" rx="2.5" ry="2.5" style="stroke:#000d19;stroke-width:.5"/><circle cx="654.5" cy="26.895" r="11" fill="#ADD1B2" style="stroke:#181818;stroke-width:1"/><path d="M657.469 32.535q-.578.297-1.219.438-.64.156-1.344.156-2.5 0-3.828-1.64-1.312-1.657-1.312-4.782t1.312-4.781q1.328-1.656 3.828-1.656.703 0 1.344.156.656.156 1.219.453v2.719q-.625-.578-1.219-.844-.594-.281-1.219-.281-1.343 0-2.031 1.078-.687 1.062-.687 3.156t.687 3.172q.688 1.062 2.031 1.062.625 0 1.219-.265.594-.281 1.219-.86z"/><text x="673.5" y="32.78" fill="#D9B8FF" font-family="Helvetica" font-size="17" textLength="180">microsoft_graph_user</text><path fill="none" d="M188.93 47.22c55.31 17.11 129.918 40.196 185.268 57.326" style="stroke:#1a83af;stroke-width:2"/><path fill="#1A83AF" d="m379.93 106.32-7.415-6.482 2.639 5.004-5.004 2.638z" style="stroke:#1a83af;stroke-width:2"/><path fill="none" d="M551.76 108.94c20.38 2.18 34.74 8.1 34.74 17.75 0 9.64-8.394 14.919-28.774 17.109" style="stroke:#1a83af;stroke-width:2"/><path fill="#1A83AF" d="m551.76 144.44 9.376 3.016-4.405-3.55 3.55-4.405z" style="stroke:#1a83af;stroke-width:2"/><path fill="none" d="M442.5 47.22v53.19" style="stroke:#1a83af;stroke-width:2"/><path fill="#1A83AF" d="m442.5 106.41 4-9-4 4-4-4z" style="stroke:#1a83af;stroke-width:2"/><path fill="none" d="M689.65 47.22c-53.91 17.11-126.491 40.154-180.441 57.284" style="stroke:#1a83af;stroke-width:2"/><path fill="#1A83AF" d="m503.49 106.32 9.789 1.089-5.024-2.602 2.603-5.023z" style="stroke:#1a83af;stroke-width:2"/></svg>
